X:1136
T:Bottle of Punch.
M:6/8
L:1/8
Q:3/8=120
I: :: ::
Z:Jack Campin * www.campin.me.uk * 2009
K:D
D2d AFD|EDE GFE|D2d AFD|EDE FDB, |!
D2d AFD|DDE FGA|BdB AGF|EDE FDB,:|!
dfd cec|BdB ABc|dcd efg|faf ecA  |!
dfd cec|BdB ABc|dcB AGF|EDE FDB,:|

